packages/gestalt-icons-android/vr-theme/ic_vr_folder_gestalt.svg

<svg width="24" height="24" viewBox="0 0 24 24" fill="none" xmlns="http://www.w3.org/2000/svg">
<path fill-rule="evenodd" clip-rule="evenodd" d="M11.1716 5L8.75736 2.58579L10.1716 1.17157L12 3H20C22.2091 3 24 4.79086 24 7V17C24 19.2091 22.2091 21 20 21H4C1.79086 21 0 19.2091 0 17V4C0 1.79086 1.79086 0 4 0H7.34315C8.40401 0 9.42143 0.421427 10.1716 1.17157L8.75736 2.58579C8.38229 2.21071 7.87358 2 7.34315 2H4C2.89543 2 2 2.89543 2 4V17C2 18.1046 2.89543 19 4 19H20C21.1046 19 22 18.1046 22 17V7C22 5.89543 21.1046 5 20 5H11.1716Z" fill="black"/>
</svg>

<svg xmlns="http://www.w3.org/2000/svg" width="24" height="24"><path d="M11.17 5 8.76 2.59l1.41-1.42L12 3h8a4 4 0 0 1 4 4v10a4 4 0 0 1-4 4H4a4 4 0 0 1-4-4V4a4 4 0 0 1 4-4h3.34a4 4 0 0 1 2.83 1.17L8.76 2.6A2 2 0 0 0 7.34 2H4a2 2 0 0 0-2 2v13c0 1.1.9 2 2 2h16a2 2 0 0 0 2-2V7a2 2 0 0 0-2-2z"/></svg>
